X:1
T:Title
%%score { ( 1 4 ) | ( 2 3 ) }
L:1/8
Q:1/4=78
M:6/8
K:D
V:1 treble nm="Grand Piano"
V:4 treble 
V:2 bass 
V:3 bass 
V:1
 FFF GAB | A3 .F3 | [Fd][FA][GB] [FA]FD | [CE]6 | [EG][EG][EG] EFG | F3 .[DFA]3 | %6
w: I.~H.~Meredith * * * * *||||||
 [CEA][B,E^G][CEA] [EAc][EGc]>[DGB] | [CA]6 | z3 [Fd]3 | dcd B3 | [FA][DF][FA] [Fd][FA]F | %11
w: |||||
 FEC [CE]3 | F=F^F [FA]3 | GFG d3 | %14
w: |||
 dDE F[CF]>[CE][Q:1/4=77][Q:1/4=76][Q:1/4=75][Q:1/4=73][Q:1/4=72][Q:1/4=71][Q:1/4=70][Q:1/4=69][Q:1/4=68][Q:1/4=67] | %15
w: |
 D6[Q:1/4=65][Q:1/4=64][Q:1/4=63][Q:1/4=62][Q:1/4=61][Q:1/4=60] |] %16
w: |
V:2
 [D,A,D][D,A,D][D,A,D] [D,B,D][D,F,D][D,G,D] | [D,F,D]3 .[D,A,D]3 | %2
 [D,A,][D,D][D,D] [D,D][D,A,D][E,^G,] | [A,,A,]6 | [A,,A,][A,,A,][A,,A,] [G,A,C][F,A,D][E,A,C] | %5
 [D,A,D]3 .D,3 | E,E,E, E,E,>E, | z3 .G3 | D,D,D, D,3 | [G,B,G][G,^A,G][G,B,G] [G,DG]3 | %10
 [D,D][D,A,][D,D] [D,D][D,D][D,A,D] | [E,^G,D][E,G,D][E,G,] [A,,A,]3 | %12
 [D,A,D][D,^G,D][D,A,D] [D,=C]3 | [G,B,D][G,^A,D][G,B,D] [^G,B,=F]3 | %14
 [A,F][K:bass][F,A,][G,^A,D] [=A,D][A,,A,]>[A,,G,] | [D,F,]6 |] %16
V:3
 x6 | x6 | x6 | x6 | x6 | x6 | x6 | A,6 | x6 | x6 | x6 | x6 | x6 | x6 | x[K:bass] x5 | x6 |] %16
V:4
 x6 | x6 | x6 | x6 | x6 | x6 | x6 | x6 | [DFA][A,DF][DFA] D2 =C | x6 | x6 | x6 | x6 | x6 | x6 | %15
 x6 |] %16

